X:1
T: The Braes of Bowbether
C:
R:Reel
Q: 232
K:F
M:4/4
L:1/8
c|A1/2c1/2d Fc A2 Ac|A1/2c1/2d Fc AG Gc|A1/2c1/2d Fc A2 Ac|de fd cA Ac|
A1/2c1/2d Fc A2 Ac|A1/2c1/2d Fc AG Gc|A1/2c1/2d Fc A2 Ac|de fd cA Ac|
de fd cA ag|fd c3/2A1/2 BG Gc|de fd cA ag|a1/2g1/2f1/2e1/2 fc A1/2A1/2A Ac|
de fc Aa ga|fd cA BG GA|FC CD FG Ac|de fd cA Ac|
dF cF A2 Ac|df cf AG Gc|dF cF A2 Ac|de fc A1/2A1/2A Ac|
dF cF A2 Ac|df cf AG Gc|dF cF A2 Ac|de fc A1/2A1/2A Ac|
de fd cA ag|fd c3/2A1/2 BG Gc|de fd cA ag|a1/2g1/2f1/2e1/2 fc A1/2A1/2A Ac|
de fc Aa ga|fd cA BG GA|FC CD FG Ac|de fd cA A||
